svgs/sharp-light/hand-point-down.svg

<svg xmlns="http://www.w3.org/2000/svg" viewBox="0 0 384 512"><!--! Font Awesome Pro 6.6.0 by @fontawesome - https://fontawesome.com License - https://fontawesome.com/license (Commercial License) Copyright 2024 Fonticons, Inc. --><path d="M48 512l-16 0 0-16 0-224-16 0L0 272l0-16 0-96C0 71.6 71.6 0 160 0l64 0c88.4 0 160 71.6 160 160c0 0 0 0 0 0l0 16 0 64 0 16 0 48 0 16-16 0-64 0 0 16-16 0-64 0 0 16 0 16-16 0-64 0 0 128 0 16-16 0-80 0zm96-176l48 0 0-16 0-48-48 0 0 64zm48-96s0 0 0 0l0-48-80 0-16 0 0-32 16 0 80 0 16 0 16 0 48 0 16 0 16 0 48 0c0-70.7-57.3-128-128-128l-64 0C89.3 32 32 89.3 32 160l0 80 80 0s0 0 0 0l32 0s0 0 0 0l48 0zm32 0l0 16 0 16 0 32 48 0 0-112-48 0 0 48zM112 272l-48 0 0 208 48 0 0-112 0-16 0-80zm240-32l0-48-48 0 0 96 48 0 0-32 0-16z"/></svg>

<svg xmlns="http://www.w3.org/2000/svg" viewBox="0 0 384 512"><!--! Font Awesome Pro 6.4.2 by @fontawesome - https://fontawesome.com License - https://fontawesome.com/license (Commercial License) Copyright 2023 Fonticons, Inc. --><path d="M48 512H32V496 272H16 0V256 160C0 71.6 71.6 0 160 0h64c88.4 0 160 71.6 160 160v0 16 64 16 48 16H368 304v16H288 224v16 16H208 144V496v16H128 48zm96-176h48V320 272H144v64zm48-96l0 0 0-48H112 96V160h16 80 16 16 48 16 16 48c0-70.7-57.3-128-128-128H160C89.3 32 32 89.3 32 160v80h80v0h32v0h48zm32 0l0 16v16l0 32h48V192H224l0 48zM112 272H64V480h48V368 352 272zm240-32V192H304v96h48V256 240z"/></svg>
